X:6
T:Hughie and Janet's March
R:march
C:Andrea Beaton
D:Buddy MacMaster, Cape Breton Tradition 2003
Z:Paul Stewart Cranford (P.S.C.), <http://www.cranfordpub.com>
L:1/8
Q:266
M:C|
K:Edor
F|TE2 B,2 E>FG<A|B2 e>f e>dB<e|d2 D2 F2 AB|A>Bd<e Td>BA<F|
TE2 B,2 E>FG<A|B2 e>f e>dB<e|d2 A<d B<dA<F|E4 E3:|
|:A|B2 e>f e2 B2|e>fg<f e2 B>c|d2f<e d2 A<d|TB>Ad<B TA2 F<A|
B2 e>f e2 B2|e>fg<f e2 B>c|d2 A<d B<dA<F|E4 E3:|
W:Copyrights - Published by Andrea Beaton (SOCAN)
